client/src/assets/icons/SC.svg

<?xml version="1.0" encoding="UTF-8" standalone="no"?>
<!-- Created with Inkscape (http://www.inkscape.org/) -->

<svg
   width="50.486057mm"
   height="34mm"
   viewBox="0 0 50.486057 34"
   version="1.1"
   id="svg5"
   inkscape:version="1.1 (c68e22c387, 2021-05-23)"
   sodipodi:docname="SC.svg"
   xmlns:inkscape="http://www.inkscape.org/namespaces/inkscape"
   xmlns:sodipodi="http://sodipodi.sourceforge.net/DTD/sodipodi-0.dtd"
   xmlns="http://www.w3.org/2000/svg"
   xmlns:svg="http://www.w3.org/2000/svg">
  <sodipodi:namedview
     id="namedview7"
     pagecolor="#505050"
     bordercolor="#eeeeee"
     borderopacity="1"
     inkscape:pageshadow="0"
     inkscape:pageopacity="0"
     inkscape:pagecheckerboard="0"
     inkscape:document-units="mm"
     showgrid="false"
     fit-margin-top="0"
     fit-margin-left="0"
     fit-margin-right="0"
     fit-margin-bottom="0"
     inkscape:zoom="1.3416246"
     inkscape:cx="121.12181"
     inkscape:cy="61.11993"
     inkscape:window-width="1280"
     inkscape:window-height="746"
     inkscape:window-x="1072"
     inkscape:window-y="1502"
     inkscape:window-maximized="1"
     inkscape:current-layer="layer1" />
  <defs
     id="defs2" />
  <g
     inkscape:label="Layer 1"
     inkscape:groupmode="layer"
     id="layer1"
     transform="translate(-23.270916,-81.645416)">
    <rect
       style="fill:#000080;fill-opacity:1;stroke:none;stroke-width:1.065;stroke-linecap:round;stroke-linejoin:round;stop-color:#000000"
       id="rect2348"
       width="50.486057"
       height="34"
       x="23.270916"
       y="81.645401" />
    <path
       id="rect846"
       style="fill:#ffffff;fill-opacity:1;stroke:none;stroke-width:4.0252;stroke-linecap:round;stroke-linejoin:round;stop-color:#000000"
       d="M 0 0 L 0 16.208984 L 72.505859 64.251953 L 0 112.29492 L 0 128.50391 L 21.335938 128.50391 L 95.40625 79.425781 L 169.47656 128.50391 L 190.8125 128.50391 L 190.8125 112.29297 L 118.30664 64.251953 L 190.8125 16.210938 L 190.8125 0 L 169.47656 0 L 95.40625 49.078125 L 21.335938 0 L 0 0 z "
       transform="matrix(0.26458333,0,0,0.26458333,23.270916,81.645416)" />
  </g>
</svg>

<?xml version="1.0" encoding="UTF-8"?>
<svg width="50.486mm" height="34mm" version="1.1" viewBox="0 0 50.486 34" xmlns="http://www.w3.org/2000/svg">
<g transform="translate(-23.271 -81.645)">
<rect x="23.271" y="81.645" width="50.486" height="34" fill="#000080" stop-color="#000000"/>
<path transform="matrix(.26458 0 0 .26458 23.271 81.645)" d="m0 0v16.209l72.506 48.043-72.506 48.043v16.209h21.336l74.07-49.078 74.07 49.078h21.336v-16.211l-72.506-48.041 72.506-48.041v-16.211h-21.336l-74.07 49.078-74.07-49.078h-21.336z" fill="#fff" stop-color="#000000"/>
</g>
</svg>
